src/assets/oneStopSolution.svg

<svg xmlns="http://www.w3.org/2000/svg" width="72" height="76" fill="none" viewBox="0 0 72 76"><path fill="#3D3D3D" d="M51.4219 0C52.6241 0.286718 53.8566 0.48803 55.0285 0.878454C64.3303 3.98964 69.8495 10.4133 71.5557 20.1251C71.6103 20.4363 71.665 20.7535 71.6771 21.0707C71.7257 22.5043 70.8453 23.4559 69.4184 23.4742C67.8094 23.4925 66.1944 23.4803 64.5186 23.4803C64.3911 24.9749 63.8325 26.2194 62.6303 27.0918C61.7863 27.7018 60.8391 27.9519 59.8008 27.897C57.5725 27.7872 56.1578 26.3475 55.5749 23.4803C54.7492 23.4803 53.8991 23.4803 53.0552 23.4803C52.1748 23.4803 51.2944 23.4986 50.414 23.4681C49.3453 23.4315 48.4042 22.6507 48.3678 21.6258C48.301 19.814 48.3496 17.9961 48.3496 16.1355C49.6975 16.0074 50.8633 15.5316 51.7255 14.4579C52.363 13.6648 52.6787 12.7437 52.703 11.7371C52.7637 9.44338 51.3854 8.00979 48.3557 7.19234C48.3557 5.38663 48.301 3.57482 48.3799 1.76301C48.4103 0.835751 49.1753 0.366022 49.9525 0C50.4443 0 50.9361 0 51.4219 0Z"/><path fill="#2ECC82" d="M24.3301 33.3509C24.3301 35.1688 24.3301 36.8586 24.3301 38.5545C24.3301 40.6043 24.8826 41.2265 26.8924 41.4583C28.0338 41.5925 29.0175 42.6174 29.1085 43.7643C29.2178 45.1063 28.4771 46.2471 27.2567 46.5887C27.0442 46.6497 26.8256 46.6863 26.607 46.7107C24.9858 46.8938 24.3301 47.6197 24.3301 49.2668C24.324 53.6652 24.3301 58.0635 24.3301 62.4619C24.3301 62.7486 24.3301 63.0414 24.3301 63.3709C21.2882 63.3709 18.313 63.3709 15.4047 63.3709C15.1497 61.8458 15.0039 60.3207 14.6336 58.8627C13.7653 55.4648 11.9134 52.6525 9.32081 50.31C5.28312 46.6497 2.64799 42.1477 1.43972 36.8159C1.18471 35.6996 1.05113 34.5649 0.838623 33.3387C1.94368 33.3387 2.91515 33.3387 3.8927 33.3387C5.48349 33.3387 7.07428 33.3448 8.66507 33.3387C10.0798 33.3326 10.9602 32.4969 11.0452 31.0999C11.1363 29.6175 12.211 28.5316 13.6196 28.5011C14.9614 28.4706 16.1211 29.5321 16.2911 30.9413C16.5158 32.7775 17.1594 33.3448 19.0173 33.3448C20.7599 33.357 22.4904 33.3509 24.3301 33.3509Z"/><path fill="#2ECC82" d="M28.6891 31.1421C30.371 31.1421 31.9557 31.1421 33.5404 31.1421C33.8561 31.1421 34.1658 31.1421 34.4633 31.1421C35.1373 34.3143 36.6977 35.9004 39.175 35.998C41.7372 36.0956 43.2673 34.6559 44.2449 31.1909C46.8678 31.1909 49.4969 31.1909 52.1685 31.1909C52.2352 33.2833 51.9681 35.2903 51.4763 37.273C50.2194 42.4034 47.6389 46.7529 43.7409 50.2912C40.614 53.1278 38.6407 56.5867 37.9728 60.7716C37.8392 61.6196 37.7906 62.4797 37.6995 63.3826C34.7487 63.3826 31.7735 63.3826 28.7255 63.3826C28.7134 63.1935 28.683 62.986 28.683 62.7725C28.683 58.9842 28.6891 55.202 28.6709 51.4136C28.6709 50.9622 28.7863 50.7487 29.2234 50.5474C31.9921 49.2663 33.5161 47.0702 33.4858 43.9956C33.4554 40.9881 31.9314 38.8652 29.2234 37.578C29.0048 37.4743 28.7073 37.2059 28.7073 37.0106C28.677 35.0951 28.6891 33.1796 28.6891 31.1421Z"/><path fill="#2ECC82" d="M26.528 23.218C26.528 25.1091 26.528 26.9758 26.528 28.9584C25.9026 28.9584 25.3258 28.9584 24.749 28.9584C23.48 28.9584 22.2049 28.9462 20.936 28.9645C20.5291 28.9706 20.3045 28.8669 20.1163 28.446C18.8534 25.7008 16.7222 24.1635 13.6803 24.1635C10.6383 24.1635 8.51929 25.6825 7.2078 28.4155C7.10458 28.6351 6.8435 28.9279 6.6492 28.934C4.77304 28.9706 2.89081 28.9584 1.01465 28.9584C1.50039 17.02 12.3505 5.27067 26.4916 5.36828C26.4916 8.02194 26.4916 10.6817 26.4916 13.3171C29.6549 13.9576 31.2518 15.5559 31.3186 18.051C31.3914 20.7595 29.9889 22.2968 26.528 23.218Z"/><path fill="#2ECC82" d="M37.7244 67.8975C37.6333 69.1846 37.6697 70.4474 37.4208 71.6553C36.9654 73.888 34.8524 75.5107 32.5695 75.5168C28.5561 75.529 24.5427 75.529 20.5293 75.5168C17.7363 75.5107 15.5444 73.461 15.344 70.6426C15.2833 69.7459 15.3319 68.8369 15.3319 67.8975C22.8062 67.8975 30.2015 67.8975 37.7244 67.8975Z"/></svg>

<svg xmlns="http://www.w3.org/2000/svg" width="72" height="76" fill="none"><path fill="#3D3D3D" d="M51.422 0c1.202.287 2.435.488 3.607.878 9.301 3.112 14.82 9.535 16.527 19.247.054.311.109.628.121.946.049 1.433-.832 2.385-2.259 2.403-1.609.018-3.224.006-4.9.006-.127 1.495-.685 2.74-1.888 3.612-.844.61-1.79.86-2.83.805-2.227-.11-3.642-1.55-4.225-4.417h-2.52c-.88 0-1.76.019-2.641-.012-1.069-.037-2.01-.817-2.046-1.842-.067-1.812-.018-3.63-.018-5.49 1.347-.129 2.513-.604 3.375-1.678.638-.793.954-1.714.978-2.72.06-2.295-1.318-3.728-4.347-4.546 0-1.805-.055-3.617.024-5.429.03-.927.795-1.397 1.572-1.763h1.47Z"/><path fill="#2ECC82" d="M24.33 33.35v5.204c0 2.05.553 2.672 2.562 2.904 1.142.135 2.125 1.16 2.216 2.306.11 1.342-.63 2.483-1.851 2.825a3.934 3.934 0 0 1-.65.122c-1.621.183-2.277.909-2.277 2.556-.006 4.398 0 8.796 0 13.195v.909h-8.925c-.255-1.525-.401-3.05-.771-4.508-.869-3.398-2.72-6.21-5.313-8.553-4.038-3.66-6.673-8.162-7.881-13.494-.255-1.116-.389-2.251-.601-3.477h3.054c1.59 0 3.181.006 4.772 0 1.415-.006 2.295-.842 2.38-2.24.091-1.482 1.166-2.567 2.575-2.598 1.341-.03 2.501 1.031 2.671 2.44.225 1.837.868 2.404 2.726 2.404 1.743.012 3.473.006 5.313.006Z"/><path fill="#2ECC82" d="M28.69 31.142h5.773c.674 3.172 2.235 4.758 4.712 4.856 2.562.098 4.092-1.342 5.07-4.807h7.924c.066 2.092-.2 4.1-.693 6.082-1.257 5.13-3.837 9.48-7.735 13.018-3.127 2.837-5.1 6.296-5.768 10.48-.134.849-.182 1.709-.273 2.612h-8.975c-.012-.19-.042-.397-.042-.61 0-3.789.006-7.571-.012-11.36 0-.45.115-.664.552-.866 2.77-1.28 4.293-3.477 4.263-6.551-.03-3.008-1.555-5.13-4.263-6.418-.218-.104-.516-.372-.516-.567-.03-1.916-.018-3.831-.018-5.869Zm-2.162-7.924v5.74h-1.779c-1.269 0-2.544-.012-3.813.007-.407.006-.631-.098-.82-.519-1.263-2.745-3.394-4.283-6.436-4.283s-5.16 1.52-6.472 4.253c-.103.22-.365.512-.559.518-1.876.037-3.758.024-5.634.024C1.5 17.02 12.35 5.271 26.492 5.368v7.95c3.163.64 4.76 2.238 4.827 4.733.072 2.709-1.33 4.246-4.791 5.167Zm11.196 44.679c-.09 1.288-.054 2.55-.303 3.758-.456 2.233-2.569 3.856-4.852 3.862-4.013.012-8.026.012-12.04 0-2.793-.006-4.985-2.056-5.185-4.874-.06-.897-.012-1.806-.012-2.746h22.392Z"/></svg>
